X:1
T:Saved by Believing
T:Saved by Believing
T:James A. Brown
T:James A. Brown, 1902
T:Public Domain Courtesy of the Cyber Hymnal™
T:Public Domain Courtesy of the Cyber Hymnal™
C:James A. Brown
Z:Public Domain
Z:Courtesy of the Cyber Hymnal™
%%score ( 1 2 ) ( 3 4 )
L:1/8
Q:1/4=95
M:4/4
K:G
V:1 treble 
V:2 treble 
V:3 bass 
V:4 bass 
V:1
 BA | G2 [DG]>[DG] [DG][B,D][CE][CF] | [B,G]2 B>A GD [Ac]>[GB] | %3
w: 1.~I be-|lieve in the sto- ry ne- ver|old, I be- lieve it! I be-|
w: 2.~I be-|lieve in the tid- ings of His|birth, I be- lieve it! I be-|
w: 3.~I be-|lieve that the shep- herds heard the|song, I be- lieve it! I be-|
w: 4.~I be-|lieve that the wise men saw His|star, I be- lieve it! I be-|
w: 5.~I be-|lieve that He came to seek and|save, I be- lieve it! I be-|
 [FA]2 [FA]>[FA] [FA][DG][CF][B,G] | [DA]2 c>B AD[GB][Ac] | [Bd]2 [Bd]>[Ad] [Gd][GB][GB][DA] | %6
w: lieve in the Sav- ior long fore-|told, I be- lieve it! I be-|lieve He’s more pre- cious far than|
w: lieve in the song of peace on|earth, I be- lieve it! I be-|lieve ’twas a time of joy and|
w: lieve that they saw the heav’n- ly|throng, I be- lieve it! I be-|lieve that the glo- ry shone a-|
w: lieve that they fol- lowed from a-|far, I be- lieve it! I be-|lieve that they found the Sav- ior|
w: lieve that e- ter- nal life He|gave, I be- lieve it! I be-|lieve I shall live be- yond the|
 [DG]2 A>B cE[Ec][Ec] | [DB]2 [DB]>[DB] [DB][DA][DG][DF] | [DG]6 ||"^Refrain" [DB][Dc] | %10
w: gold, I be- lieve it! I am|saved by be- liev- ing on His|name.||
w: mirth, I be- lieve it! I am|saved by be- liev- ing on His|name.||
w: round, I be- lieve it! I am|saved by be- liev- ing on His|name.|I am|
w: there, I be- lieve it! I am|saved by be- liev- ing on His|name.||
w: grave, I be- lieve it! I am|saved by be- liev- ing on His|name.||
 [Gd]2 [Gd]>[Gd] [Gd][GB][Gc][Ge] | d6 [GB][FA] | [EG]2 [DG]>[DG] [DG]G[DF][DG] | A6 [GB][Gc] | %14
w: ||||
w: ||||
w: saved by be- liev- ing on His|name, I am|saved, for His Word is just the|same, ’Tis the|
w: ||||
w: ||||
 [Gd]2 [Gd]>[Ge] [Gd]<[GB] [GB][DA] | [DG]2 [DA]>[DB] [Ec]<[CE] [Ec][Ec] | %16
w: ||
w: ||
w: same “who- so- ev- er,” For His|love chang- eth ne- ver, I am|
w: ||
w: ||
 [DB]2 [DB]>[DB] [DB][DA][DG][DF] | [DG]6 |] %18
w: ||
w: ||
w: saved by be- liev- ing on His|name.|
w: ||
w: ||
V:2
 BA | G2 x6 | x2 B>A GD x2 | x8 | x2 c>B AD x2 | x8 | x2 A>B cE x2 | x8 | x6 || x2 | x8 | %11
 (GGF>A G2) x2 | x5 G x2 | (F2 G>G F2) x2 | x8 | x8 | x8 | x6 |] %18
V:3
 B,A, | G,2 [G,B,]>[G,B,] [G,B,]G,[D,F,][D,A,] | G,2 B,>A, G,D, [A,C]>[G,B,] | %3
w: ~ ~|~ ~ ~ ~ ~ ~ ~|~ ~ ~ ~ ~ ~ ~|
 [F,A,]2 [D,C]>[D,C] [D,C][D,B,][D,A,][D,G,] | [D,F,]2 C>B, A,D,[G,B,][A,C] | %5
w: ~ ~ ~ ~ ~ ~ ~|~ ~ ~ ~ ~ ~ ~|
 [B,D]2 [G,D]>[G,C] [G,B,][G,D][G,D][G,C] | [G,B,]2 A,>B, CE,[C,G,][C,G,] | %7
w: ~ ~ ~ ~ ~ ~ ~|~ ~ ~ ~ ~ ~ ~|
 [D,G,]2 [D,G,]>[D,G,] [D,G,][D,C][D,B,][D,A,] | [G,,G,B,]6 || G,[G,A,] | %10
w: ~ ~ ~ ~ ~ ~ ~|~|~ ~|
 [G,B,]2 [G,B,]>[G,B,] [G,B,][G,D][G,E][G,C] | [G,B,][G,B,] [D,A,]>[D,C] [G,B,]2 [G,D][D,C] | %12
w: ~ ~ ~ ~ ~ by be-|liev- ing on His name, ~ ~|
 [E,B,]2 [B,,B,]>[D,B,] [G,B,][B,D][A,C][G,B,] | [D,D]2 [A,,^C]>[A,,C] [D,D]2 G,[G,A,] | %14
w: ~ ~ ~ ~ ~ ~ ~|~ just the same * *|
 [G,B,]2 [G,B,]>[G,C] G,<[G,D] [G,D][G,C] | [G,B,]2 [G,C]>[G,D] [C,C]<[C,G,] [C,G,][C,G,] | %16
w: ||
 [D,G,]2 [D,G,]>[D,G,] [D,G,][D,C][D,B,][D,A,] | [G,,G,B,]6 |] %18
w: ||
V:4
 B,A, | G,2 x G, x4 | G,2 B,>A, G,D, x2 | x8 | x2 C>B, A,D, x2 | x8 | x2 A,>B, CE, x2 | x8 | x6 || %9
 G, x | x8 | x8 | x8 | x6 G, x | x8 | x8 | x8 | x6 |] %18

